X: 34720
T: Road To Glountane, The
R: barndance
M: 4/4
K: Gmajor
E2 E>F A2 A>B|c>ee>c B>A F2|(3faf e>c A>Bc>A|e>cB>A F>AA>F|
E3 F A3 B|c2 e>c B>A A2|(3faf e>c A>Bc>A|e>cB>c A2||
e2 e>f a2 a>f|e>cB>A F>AA>B|c>BB>A c>BB>A|c>eB>A F2 A>F|
E3 F A3 B|c2 e>c B>c A2|f2 e>c A>Bc>A|e>cB>c A2||
D2 D>E (3GGG G>A|B<dd>B A>G E2|(3ege d>B G2 (3BAG|d>BA>G (3EGE G>E|
D3 E G3 A|(3BcB (3dcB A>G E2|e2 d>B G>AB>G|d>B (3ABA G2-||
d>Bd>e g2 (3gfe|d2 B>G E2 G>A|(3BcB A>G B2 A>G|B>d (3BAG E>GG>E|
D3 E G>FG>A|(3BcB (3dcB A>G E2|e2 d>B G>AB>G|d>B (3ABA G2||

